X:1
T:Hoffart bringt Zanck
T:André Vierendeels
T:Melody by Georg Vogler (1625) (Soprano voice)
T:Source : Catechismus---Würzburg---J.Volmari---1652. Editor : André Vierendeels (08/10/17).
T:Notes : Original clef : G2, other voices supplied editorially Original note values have been halved Editorial accidentals above the staff Text Middle German
T:Hoffart bringt Zanck
T:©
T:©
C:André Vierendeels
Z:©
%%score [ 1 2 3 ]
L:1/8
Q:1/4=120
M:2/2
K:C
V:1 treble nm="Soprano" snm="S"
V:2 treble nm="Alto" snm="A"
V:3 bass nm="Bass" snm="B"
V:1
"^1)" c4 c2 c2 | B4 c2 e2- | e2 d2 e4 | z4 d4 | c2 d2 e2 d2- | d2 c4 B2 | c4 z4 | e4 d2 c2 | %8
w: Hof- fart bringt|Zanck, Un- ei-|* nig- keit,|Re-|bel- lion und Strit-|* tig- *|keit,|ein Mut- ter|
w: Ein hoch- schäd-|li- ches See-|* len- gifft|ist|sie, dasz Sünd La-|* * ster|stifft:|ver- derbt, ver-|
 B4 A2 G2- |"^#" G2 F2 G4 | z4 e4 | d2 c2 B4 | A2 G4 F2 | G4 z4 | G4 c2 c2 | c2 d2 e4 | c4 B4 | %17
w: al- ler Kät-|* ze- rey,|Mords,|Un- ge- hor-|sams, Meu- te-|rey,|ein Sturm- wind|Bäum und Baw|ab- hebt,|
w: hergt all Tu-|* gend schon,|Gnad,|Ver- dienst, die|Glo- * ry|Kron,|sie ist ein|ausz- ge- schlos-|sne Beull,|
 z4 B4 | c2 d2 e2 d2- | d2 c4 B2 | c8 |] %21
w: Hof-|fart die Tu- gend|_ wi- der-|legt.|
w: vol-|ler Un- raths Ey-|* ter und|feul.|
V:2
"^2)""^1)" G4 G2 G2 | D4 E2 G2 | A4 B4 | z4 B4 | G2 G2 G2 G2- | G2 E2 D4 | E4 z4 | G4 G2 E2 | %8
w: Hof- fart bringt|Zanck, Un- ei-|nig- keit,|Re-|bel- lion und Strit-|* tig- *|keit,|ein Mut- ter|
w: Vorm Men- schen|scheint sie schön|und stoltz:|be-|siht mans recht, so|_ ist faul|Holtz,|sie macht ge-|
 G4 F2 G2 | D4 G4 | z4 E4 | G2 G2 G4 | D2 D2 D4 | D4 z4 | D4 E2 E2 | G2 G2 G4 | E4 D4 | z4 D4 | %18
w: al- ler Kät-|ze- rey,|Mords,|Un- ge- hor-|sams, Meu- te-|rey,|ein Sturm- wind|Bäum und Baw|ab- hebt,|Hof-|
w: schwel- len wie|ein Krott,|ver-|haft von Gott,|der Men- schen|Spott:|als ein Meer-|well sie sich|auff- stellt,|so|
 G2 G2 G2 A2- | A2 E2 D4 | E8 |] %21
w: fart die Tu- gend|_ wi- der-|legt.|
w: hoch sie steigt, so|_ tieff sie|fellt.|
V:3
"^3)""^1)""^4)" C,4 E,2 E,2 | G,4 C,2 E,2 | F,4 E,4 | z4 G,4 | C,2 G,2 C,2 B,,2- | B,,2 A,,2 G,,4 | %6
w: Hof- fart bringt|Zanck, Un- ei-|nig- keit,|Re-|bel- lion und strit-|* tig- *|
w: Ü- ber die|Wol- cken stei-|gen all,|wolt|Lu- ci- fer vor|_ sei- nem|
 C,4 z4 | C,4 B,,2 C,2 | G,4 D,2 G,2 | A,4 G,4 | z4 C,4 | G,2 C,2 G,4 | F,2 G,2 A,4 | G,4 z4 | %14
w: keit,|ein Mut- ter|al- ler Kät-|ze- rey,|Mords,|Un- ge- hor-|sams, Meu- te-|rey,|
w: Fall,|A- dam wolt|seyn den Göt-|tern gleich|und|La- za- rum|ver- acht der|Reich.|
 G,4 C,2 C,2 | E,2 G,2 C,4 | E,4 G,4 | z4 G,4 | C,2 G,2 E,2 D,2- | D,2 A,2 G,4 | C,8 |] %21
w: ein Sturm- wind|Bäum und Baw|ab- hebt,|Hof-|fart die Tu- gend|_ wi- der-|legt.|
w: Un- der die|stin- ckend Schwe-|bel- glut,|schart|So- do- mam der|_ Ü- ber-|muth.|

